docs/assets/icons/f1-replay-timing-dark.svg

<?xml version="1.0" encoding="UTF-8" standalone="no"?>
<!-- Created with Inkscape (http://www.inkscape.org/) -->

<svg
   width="32"
   height="32"
   viewBox="0 0 32 32"
   version="1.1"
   id="svg1"
   inkscape:version="1.4.3 (0d15f75042, 2025-12-25)"
   sodipodi:docname="f1-replay-timing.svg"
   xmlns:inkscape="http://www.inkscape.org/namespaces/inkscape"
   xmlns:sodipodi="http://sodipodi.sourceforge.net/DTD/sodipodi-0.dtd"
   xmlns="http://www.w3.org/2000/svg"
   xmlns:svg="http://www.w3.org/2000/svg">
  <sodipodi:namedview
     id="namedview1"
     pagecolor="#505050"
     bordercolor="#ffffff"
     borderopacity="1"
     inkscape:showpageshadow="0"
     inkscape:pageopacity="0"
     inkscape:pagecheckerboard="1"
     inkscape:deskcolor="#505050"
     inkscape:document-units="px"
     inkscape:zoom="16"
     inkscape:cx="15.90625"
     inkscape:cy="23"
     inkscape:window-width="2560"
     inkscape:window-height="1368"
     inkscape:window-x="0"
     inkscape:window-y="0"
     inkscape:window-maximized="1"
     inkscape:current-layer="svg1" />
  <defs
     id="defs1">
    <filter
       style="color-interpolation-filters:sRGB;"
       inkscape:label="Drop Shadow"
       id="filter19"
       x="-0.085714286"
       y="-0.34285714"
       width="1.1714286"
       height="1.6857143">
      <feFlood
         result="flood"
         in="SourceGraphic"
         flood-opacity="0.498039"
         flood-color="rgb(0,0,0)"
         id="feFlood18" />
      <feGaussianBlur
         result="blur"
         in="SourceGraphic"
         stdDeviation="1.000000"
         id="feGaussianBlur18" />
      <feOffset
         result="offset"
         in="blur"
         dx="0.000000"
         dy="0.000000"
         id="feOffset18" />
      <feComposite
         result="comp1"
         operator="in"
         in="flood"
         in2="offset"
         id="feComposite18" />
      <feComposite
         result="comp2"
         operator="over"
         in="SourceGraphic"
         in2="comp1"
         id="feComposite19" />
    </filter>
    <filter
       style="color-interpolation-filters:sRGB;"
       inkscape:label="Drop Shadow"
       id="filter29"
       x="-0.049074014"
       y="-0.48890664"
       width="1.098148"
       height="1.9778133">
      <feFlood
         result="flood"
         in="SourceGraphic"
         flood-opacity="0.498039"
         flood-color="rgb(0,0,0)"
         id="feFlood28" />
      <feGaussianBlur
         result="blur"
         in="SourceGraphic"
         stdDeviation="0.500000"
         id="feGaussianBlur28" />
      <feOffset
         result="offset"
         in="blur"
         dx="0.000000"
         dy="0.000000"
         id="feOffset28" />
      <feComposite
         result="comp1"
         operator="in"
         in="flood"
         in2="offset"
         id="feComposite28" />
      <feComposite
         result="comp2"
         operator="over"
         in="SourceGraphic"
         in2="comp1"
         id="feComposite29" />
    </filter>
    <filter
       style="color-interpolation-filters:sRGB;"
       inkscape:label="Drop Shadow"
       id="filter50"
       x="-0.042643386"
       y="-0.045224999"
       width="1.0854248"
       height="1.0909436">
      <feFlood
         result="flood"
         in="SourceGraphic"
         flood-opacity="0.498039"
         flood-color="rgb(0,0,0)"
         id="feFlood49" />
      <feGaussianBlur
         result="blur"
         in="SourceGraphic"
         stdDeviation="0.400000"
         id="feGaussianBlur49" />
      <feOffset
         result="offset"
         in="blur"
         dx="0.000000"
         dy="0.000000"
         id="feOffset49" />
      <feComposite
         result="comp1"
         operator="in"
         in="flood"
         in2="offset"
         id="feComposite49" />
      <feComposite
         result="comp2"
         operator="over"
         in="SourceGraphic"
         in2="comp1"
         id="feComposite50" />
    </filter>
    <filter
       inkscape:label="Button"
       inkscape:menu="Bevels"
       inkscape:menu-tooltip="Soft bevel, slightly depressed middle"
       style="color-interpolation-filters:sRGB;"
       id="filter56"
       x="-0.569375"
       y="-0.569375"
       width="2.13875"
       height="2.13875">
      <feGaussianBlur
         stdDeviation="2.3"
         in="SourceAlpha"
         result="result0"
         id="feGaussianBlur53" />
      <feMorphology
         in="SourceAlpha"
         radius="6.5"
         result="result1"
         id="feMorphology53" />
      <feGaussianBlur
         stdDeviation="7"
         in="result1"
         id="feGaussianBlur54" />
      <feColorMatrix
         values="1 0 0 0 0 0 1 0 0 0 0 0 1 0 0 0 0 0 0.3 0"
         result="result91"
         id="feColorMatrix54" />
      <feComposite
         in="result0"
         operator="out"
         result="result2"
         in2="result91"
         id="feComposite54" />
      <feDiffuseLighting
         surfaceScale="10"
         id="feDiffuseLighting54">
        <feDistantLight
           azimuth="225"
           elevation="45"
           id="feDistantLight54" />
      </feDiffuseLighting>
      <feBlend
         in2="SourceGraphic"
         mode="multiply"
         id="feBlend54" />
      <feComposite
         in2="SourceAlpha"
         operator="in"
         result="result3"
         id="feComposite55" />
      <feGaussianBlur
         stdDeviation="1"
         in="result3"
         result="result4"
         id="feGaussianBlur55" />
      <feComposite
         in2="result3"
         operator="atop"
         id="feComposite56" />
    </filter>
  </defs>
  <path
     style="display:inline;fill:none;stroke:#fcfcfc;stroke-width:0.7;stroke-linecap:round;stroke-linejoin:miter;stroke-miterlimit:4;stroke-dasharray:none;fill-opacity:1;paint-order:stroke markers fill;stroke-opacity:1;filter:url(#filter50)"
     d="m 18.564647,30.011876 -3.780499,-8.918432 c -0.404242,-0.763888 -0.185162,-1.633997 0.396987,-2.56598 l 1.034039,-1.091233 c 0.499425,-0.635303 0.728525,-1.257619 0.837825,-1.874113 l -0.652495,-3.907657 c -0.149649,-0.808525 0.52489,-1.062787 1.104115,-0.811632 l 1.363472,0.341763 c 0.495771,0.02369 0.68047,-0.190237 0.579903,-0.650494 C 18.894346,9.6339512 18.231414,8.9161525 17.454268,8.3890031 16.918002,7.9954726 16.580315,8.0887751 16.244681,8.1869704 L 4.2501828,12.025217 c -1.1538203,0.546512 -1.7768112,1.781859 -0.6907447,2.34244 l 1.0701203,0.831342 c 0.9452259,0.648095 -0.6638228,2.766225 -1.7260315,1.294382 L 1.3010849,14.012473 C 1.0414799,13.45444 0.76633684,12.832599 0.67829186,12.118173 0.61899525,11.636965 0.60891669,10.971345 0.94929931,10.237477 1.9036461,7.5619347 3.109022,5.4645076 4.3216863,2.9437279 4.5245641,2.4570195 4.7625237,2.0440043 5.1320657,1.9085905 5.4446373,1.7177113 5.6796786,1.449404 6.2923967,1.5583444 7.1047188,1.6104535 8.1284231,1.8736925 9.257031,2.241705 l 1.706211,0.6421755 3.601574,1.9204319 c 0.397088,0.1721429 0.781581,0.3522552 1.377488,0.3976829 l 1.006701,-0.014578 c 0.368451,0.045332 0.726032,0.1398045 1.02098,0.516803 l 1.168385,1.4604459 c 0.438805,0.3355477 0.873621,0.5902947 1.293678,0.5375537 l 0.943714,-0.1473858 c 1.044542,0.054997 1.520889,0.4720428 1.748413,1.0476401 l 0.133911,1.8385808 c 0.02474,0.428005 -0.0092,0.843002 0.336372,1.342108 2.156979,3.599545 4.227717,7.131298 6.403089,10.489871 0.371015,0.808427 0.805016,1.749636 1.176032,2.558062 0.378608,0.799796 0.286211,2.437795 -1.599294,2.748488 l -1.307421,-0.118063 -1.370269,-0.01318 -4.417877,0.869519 c -0.266484,0.04142 -0.52714,0.09062 -0.447018,0.58755 l 0.154173,0.615146 c -0.05073,0.318081 -0.0019,0.695842 -0.495968,0.748307 -0.73052,0.05918 -1.721034,0.338324 -2.383933,0.0923 z"
     id="path13634"
     inkscape:connector-curvature="0"
     sodipodi:nodetypes="ccccccccccccccccsccccccccccccccccccccccccccc" />
  <g
     inkscape:label="Layer 1"
     inkscape:groupmode="layer"
     id="layer1">
    <g
       id="g29"
       transform="matrix(1.1195171,0,0,1.1195171,-1.9122741,3.1255531)">
      <path
         d="m 13.2,10.613333 h 9.228333 L 25.041667,8 H 12.955 C 9.63,8 8.7316667,8.3966667 6.9233334,10.111667 5.1616667,11.85 2,15 2,15 H 5.9433333 C 6.8416666,14.125 8.51,12.515 9.2683333,11.791667 10.341667,10.776667 10.866667,10.613333 13.2,10.613333 Z M 25.788334,8 l -7,7 H 23 l 7,-7 z m -3.791668,3.045 h -8.469999 c -2.59,0 -3.033334,0.14 -4.141667,1.248333 C 8.3466666,13.331667 6.6666667,15 6.6666667,15 h 3.6750003 l 0.875,-0.875 c 0.571667,-0.571667 0.874999,-0.641667 2.076666,-0.641667 h 6.265001 z"
         id="path1"
         style="fill:#e10600;fill-opacity:0.988235;stroke:none;stroke-width:0.25;stroke-linecap:round;stroke-linejoin:round;stroke-dasharray:none;stroke-opacity:1;paint-order:stroke fill markers;filter:url(#filter19)" />
    </g>
  </g>
</svg>

<?xml version="1.0" encoding="UTF-8"?>
<svg version="1.1" viewBox="0 0 32 32" xmlns="http://www.w3.org/2000/svg"><defs><filter id="filter19" x="-.085714" y="-.34286" width="1.1714" height="1.6857" color-interpolation-filters="sRGB"><feFlood flood-color="rgb(0,0,0)" flood-opacity=".49804" in="SourceGraphic" result="flood"/><feGaussianBlur in="SourceGraphic" result="blur" stdDeviation="1.000000"/><feOffset dx="0.000000" dy="0.000000" in="blur" result="offset"/><feComposite in="flood" in2="offset" operator="in" result="comp1"/><feComposite in="SourceGraphic" in2="comp1" result="comp2"/></filter><filter id="filter50" x="-.042643" y="-.045225" width="1.0854" height="1.0909" color-interpolation-filters="sRGB"><feFlood flood-color="rgb(0,0,0)" flood-opacity=".49804" in="SourceGraphic" result="flood"/><feGaussianBlur in="SourceGraphic" result="blur" stdDeviation="0.400000"/><feOffset dx="0.000000" dy="0.000000" in="blur" result="offset"/><feComposite in="flood" in2="offset" operator="in" result="comp1"/><feComposite in="SourceGraphic" in2="comp1" result="comp2"/></filter></defs><path d="m18.565 30.012-3.7805-8.9184c-.40424-.76389-.18516-1.634.39699-2.566l1.034-1.0912c.49942-.6353.72852-1.2576.83782-1.8741l-.6525-3.9077c-.14965-.80852.52489-1.0628 1.1041-.81163l1.3635.34176c.49577.02369.68047-.19024.5799-.65049-.55365-.90015-1.2166-1.6179-1.9937-2.1451-.53627-.39353-.87395-.30023-1.2096-.20203l-11.994 3.8382c-1.1538.54651-1.7768 1.7819-.69074 2.3424l1.0701.83134c.94523.6481-.66382 2.7662-1.726 1.2944l-1.6024-2.4809c-.2596-.55803-.53475-1.1799-.62279-1.8943-.059297-.48121-.069375-1.1468.27101-1.8807.95435-2.6755 2.1597-4.773 3.3724-7.2937.20288-.48671.44084-.89972.81038-1.0351.31257-.19088.54761-.45919 1.1603-.35025.81232.052109 1.836.31535 2.9646.68336l1.7062.64218 3.6016 1.9204c.39709.17214.78158.35226 1.3775.39768l1.0067-.014578c.36845.045332.72603.1398 1.021.5168l1.1684 1.4604c.4388.33555.87362.59029 1.2937.53755l.94371-.14739c1.0445.054997 1.5209.47204 1.7484 1.0476l.13391 1.8386c.02474.428-.0092.843.33637 1.3421 2.157 3.5995 4.2277 7.1313 6.4031 10.49.37102.80843.80502 1.7496 1.176 2.5581.37861.7998.28621 2.4378-1.5993 2.7485l-1.3074-.11806-1.3703-.01318-4.4179.86952c-.26648.04142-.52714.09062-.44702.58755l.15417.61515c-.05073.31808-.0019.69584-.49597.74831-.73052.05918-1.721.33832-2.3839.0923z" fill="none" filter="url(#filter50)" stroke="#fcfcfc" stroke-linecap="round" stroke-width=".7" style="paint-order:stroke markers fill"/><g transform="matrix(1.1195 0 0 1.1195 -1.9123 3.1256)"><path d="m13.2 10.613h9.2283l2.6133-2.6133h-12.087c-3.325 0-4.2233.39667-6.0317 2.1117-1.7617 1.7383-4.9233 4.8883-4.9233 4.8883h3.9433c.89833-.875 2.5667-2.485 3.325-3.2083 1.0733-1.015 1.5983-1.1783 3.9317-1.1783zm12.588-2.6133-7 7h4.2117l7-7zm-3.7917 3.045h-8.47c-2.59 0-3.0333.14-4.1417 1.2483-1.0383 1.0383-2.7183 2.7067-2.7183 2.7067h3.675l.875-.875c.57167-.57167.875-.64167 2.0767-.64167h6.265z" fill="#e10600" fill-opacity=".98824" filter="url(#filter19)" style="paint-order:stroke fill markers"/></g></svg>
